!!!SOCIAL_FUNCTION:	songs concerning the sacred stones
!!!PDT:	1918

Specific Region: Dakotas, Minnesota, Montana, Nebraska
!!!REG: Dakotas and Montana
!!!LING_GROUP: Siouan
!!!LANG: Tone
!!!OTL@ENG: Worthy of Reverence
!!!ONM: No. 63
**kern
*Imale
*clefF4
*k[b-]
*M2/4
*>[A,A]
*>norep[A]
*>A
=!|:
*MM69
16c
=1
(8c
16A)
32A
32A
8..A
32c
=2
(4c
8A)
(8A
=3||
*M3/4
4G
4F)
4D
=4||
*M2/4
4.C
16F
16F
=5
8.F
16F
4A
=6
4A
8..G#
32A
=7
8..A
32A
(8.G#
32A
32G#)
=8
8.F
16F
4D
=9
4C
4AA
=10||
*M3/4
4AA
4FF
8.AA
16AA
=11
4.C
8AA
4AA
=12||
*M2/4
8AA
8GG
4FF
=13
2FF
=14
4..FF
==:|!
*-
!!!CNT: Native American -- Sioux
!!!MRD: 1911/07//-1914///
!!!OCL: Frances Densmore
!!!YOR1: Teton Sioux Music, Bulletin 61,
!!!YOR2: Bureau of American Ethnology, Smithsonian Institution
!!!PPR: Government Printing Office
!!!PPP: Washington, D.C.
!!!PDT: 1918///
!!!ENC: Craig Stuart Sapp
!!!END: 2002/03/25/
!!!EEV: 2002/03/31/
!!!AGN: Song of Personal Dreams/Song Concerning the Sacred Stones
!!!MPN@@SIO: Waking'yan-wata'kpe
!!!MPN@ENG: Charging Thunder
!!!TXO: Teton Sioux
!!!MLC: Standing Rock Reservation, South Dakota, United States of America
!!!ARL: 45.9/-100.7#
!!!catalog: Catalogue No. 563
!!!PPG: 219
!!!EFL: 63/245
!!!VTS: 3710663527
